X:49
T:Tripping up the Stairs
R:jig
O:Ireland
M:6/8
L:1/8
K:D
A | "D" FAA "G" GBB | "D" FAd fed | "A" cBc ABc | "D" dfe "A" dAG |
    "D" FAA "G" GBB | "D" FAd fed | "A" cBc ABc | "G" dfe "D" d2  :|
d | "Bm" dBB    fBB | dBd     fed | "A" cAA eAA | efe         ecA |
    "Bm" dBB    fBB | dBd     fed | "A" cBc ABc | "G" dfe "D" d2  :|
